icons/svg/16x16/mail alt1/outline.svg

<svg xmlns="http://www.w3.org/2000/svg" width="16" height="16" viewBox="0 0 16 16">
  <path fill-rule="evenodd" d="M13,11.4004 L3,11.4004 C2.779,11.4004 2.6,11.2204 2.6,11.0004 L2.6,7.1944 L8,9.8944 L13.4,7.1944 L13.4,11.0004 C13.4,11.2204 13.221,11.4004 13,11.4004 M3,4.5994 L13,4.5994 C13.221,4.5994 13.4,4.7794 13.4,5.0004 L13.4,5.4054 L8,8.1054 L2.6,5.4054 L2.6,5.0004 C2.6,4.7794 2.779,4.5994 3,4.5994 M13,3.0004 L3,3.0004 C1.896,3.0004 1,3.8954 1,5.0004 L1,11.0004 C1,12.1044 1.896,13.0004 3,13.0004 L13,13.0004 C14.104,13.0004 15,12.1044 15,11.0004 L15,5.0004 C15,3.8954 14.104,3.0004 13,3.0004"/>
</svg>

<svg width="16" height="16" fill="none" xmlns="http://www.w3.org/2000/svg">
  <path fill-rule="evenodd" clip-rule="evenodd" d="M13 11.4H3a.4.4 0 01-.4-.4V7.194l5.4 2.7 5.4-2.7V11a.4.4 0 01-.4.4zM3 4.6h10a.4.4 0 01.4.4v.405L8 8.105l-5.4-2.7V5a.4.4 0 01.4-.4zM13 3H3a2 2 0 00-2 2v6a2 2 0 002 2h10a2 2 0 002-2V5a2 2 0 00-2-2z" fill="#000"/>
</svg>
